storage/app/icons/phosphoricons/regular/scan.svg

<svg xmlns="http://www.w3.org/2000/svg" fill="currentColor" viewBox="0 0 256 256"><path d="M224 40v40a8 8 0 0 1-16 0V48h-32a8 8 0 0 1 0-16h40a8 8 0 0 1 8 8M80 208H48v-32a8 8 0 0 0-16 0v40a8 8 0 0 0 8 8h40a8 8 0 0 0 0-16m136-40a8 8 0 0 0-8 8v32h-32a8 8 0 0 0 0 16h40a8 8 0 0 0 8-8v-40a8 8 0 0 0-8-8M40 88a8 8 0 0 0 8-8V48h32a8 8 0 0 0 0-16H40a8 8 0 0 0-8 8v40a8 8 0 0 0 8 8m40-16h96a8 8 0 0 1 8 8v96a8 8 0 0 1-8 8H80a8 8 0 0 1-8-8V80a8 8 0 0 1 8-8m8 96h80V88H88Z"/></svg>

<svg xmlns="http://www.w3.org/2000/svg" viewBox="0 0 256 256" fill="currentColor"><path d="M224,40V80a8,8,0,0,1-16,0V48H176a8,8,0,0,1,0-16h40A8,8,0,0,1,224,40ZM80,208H48V176a8,8,0,0,0-16,0v40a8,8,0,0,0,8,8H80a8,8,0,0,0,0-16Zm136-40a8,8,0,0,0-8,8v32H176a8,8,0,0,0,0,16h40a8,8,0,0,0,8-8V176A8,8,0,0,0,216,168ZM40,88a8,8,0,0,0,8-8V48H80a8,8,0,0,0,0-16H40a8,8,0,0,0-8,8V80A8,8,0,0,0,40,88ZM80,72h96a8,8,0,0,1,8,8v96a8,8,0,0,1-8,8H80a8,8,0,0,1-8-8V80A8,8,0,0,1,80,72Zm8,96h80V88H88Z"/></svg>
